X: 37722
T: Soldier's Dance
R: jig
M: 6/8
K: Amajor
|:A2 A AGA|B2 B e2 c|A2 A AGA|GBG EFG|
A2 A AGA|B2 B e2 d|cBA BAG|1 A3 A2 E:|2 A3 A2 c||
|:e2 e cde|f2 f f3|g2 g efg|a2 a a3|
e2 e cde|fga agf|edc BAG|1 A3 A2 c:|2 A3 A3||

